X:1
T:Lorva Horovel (Plowing Song)
C:Trad Armenian (pre-1900)
S:Public domain — traditional Armenian folk song
M:7/8
L:1/8
Q:7/8=88
K:Am
H:7/8 meter (3+2+2). A Phrygian. The driving rhythm of oxen at work.
H:Range A3-E4. Grace-note glides on each phrase start.
{B,}A,2 B,2 C2 D | {E}D2 C2 B,2 A, | {B,}A,2 B,2 C D E | E4 D2 A, |
C2 D2 E2 F | {G}G4 F2 E | {F}E2 D2 C2 B, | A,4 A,2 A, |]
